X:254
T:Miss Monaghan
R:reel
H:See also #552
Z:id:hn-reel-254
M:C|
K:D
D2 (3FED FA~A2|BcBA FABc|d2dB ABde|fede fe~e2|
D2 (3FED FA~A2|BcBA FABc|d2dB ABdB|AFEG FD~D2:|
|:faab afdf|gefd edBc|d2dB ABde|fede fe~e2|
faab afdf|gefd edBc|d2dB ABdB|AFEG FD~D2:|

